public/svg/color/mzc.svg

<svg xmlns="http://www.w3.org/2000/svg" width="32" height="32" viewBox="0 0 32 32"><g fill="none" fill-rule="evenodd"><circle cx="16" cy="16" r="16" fill="#FFAA05"/><path fill="#FFF" d="M16.8112206,11.5669777 L16.8112206,13.4303147 L19.025019,13.4303147 L18.0242608,14.5783697 L16.5382866,14.5783697 L16.5382866,16.0207977 L18.0849128,16.0207977 L17.3267627,17.1688527 L16.5382866,17.1688527 L16.5382866,20.1125834 L15.2645944,21.8493845 L15.2645944,17.1688527 L13.5056861,17.1688527 L14.4761183,16.0207977 L15.2645944,16.0207977 L15.2645944,14.5783697 L12.777862,14.5783697 L13.7786202,13.4303147 L15.2645944,13.4303147 L15.2645944,11.4997932 C14.5323079,10.7065712 13.5214411,10.3099602 12.2319939,10.3099602 C9.76042456,10.3099602 7.80439727,12.9445991 7.80439727,15.5645194 C7.80439727,17.311133 8.20368966,18.7928108 9.00227445,20.0095528 L7.62244124,21.613886 C6.54081375,20.0118526 6,18.1818333 6,16.1238283 C6,11.6052017 9.88931008,9 12.641395,9 C14.3249713,9 15.6149412,9.70570908 16.5113048,11.1171272 C18.2252786,9.94120754 19.9780177,9.35324768 21.7695224,9.35324768 C24.5140258,9.35324768 26,12.7023163 26,15.9030485 C26,20.1611664 23.1341926,21.8052285 22.0879454,21.996571 C22.0088734,22.0110321 21.9284356,21.978995 21.8826148,21.9147911 C21.8184966,21.8249491 21.8415487,21.7016628 21.934103,21.6394236 L21.9341019,21.639422 C23.5529645,20.5507996 24.3623958,18.8839859 24.3623958,16.6389811 C24.3623958,11.7376695 21.8453374,10.6043332 19.9954511,10.6043332 C18.8513986,10.6043332 17.7899883,10.9252148 16.8112203,11.5669779 L16.8112206,11.5669777 Z"/></g></svg>

<svg xmlns="http://www.w3.org/2000/svg" width="32" height="32" viewBox="0 0 32 32"><g fill="none" fill-rule="evenodd"><circle cx="16" cy="16" r="16" fill="#FFAA05"/><path fill="#FFF" d="M16.811 11.567v1.863h2.214l-1 1.148h-1.487v1.443h1.547l-.758 1.148h-.789v2.944l-1.273 1.736v-4.68h-1.76l.971-1.148h.789v-1.443h-2.487l1-1.148h1.487V11.5c-.733-.793-1.744-1.19-3.033-1.19-2.472 0-4.428 2.635-4.428 5.255 0 1.746.4 3.228 1.198 4.445l-1.38 1.604C6.541 20.012 6 18.182 6 16.124 6 11.605 9.89 9 12.641 9c1.684 0 2.974.706 3.87 2.117 1.714-1.176 3.467-1.764 5.259-1.764 2.744 0 4.23 3.35 4.23 6.55 0 4.258-2.866 5.902-3.912 6.094a.207.207 0 01-.205-.082.194.194 0 01.051-.276c1.619-1.088 2.428-2.755 2.428-5 0-4.901-2.517-6.035-4.367-6.035a5.693 5.693 0 00-3.184.963z"/></g></svg>
